static/img/mobile/button-default.svg

<svg fill="none" height="48" viewBox="0 0 101 48" width="101" xmlns="http://www.w3.org/2000/svg" xmlns:xlink="http://www.w3.org/1999/xlink"><clipPath id="a"><path d="m16 12h69v24h-69z"/></clipPath><rect fill="#0063a3" height="48" rx="4" width="101"/><g clip-path="url(#a)"><path d="m24.7734 30-1.1172-3.1719h-4.3671l-1.1172 3.1719h-1.9766l4.25-11.4688h2.0781l4.2422 11.4688zm-1.6015-4.7812-1.086-3.125c-.0416-.1355-.1015-.3256-.1797-.5704-.0781-.25-.1562-.5026-.2343-.7578-.0781-.2604-.1433-.4791-.1953-.6562-.0521.2135-.1172.4531-.1954.7187-.0729.2604-.1458.5052-.2187.7344-.0677.2292-.1198.4063-.1563.5313l-1.0937 3.125zm8.0703 4.9374c-1.0313 0-1.8594-.375-2.4844-1.125-.6198-.7552-.9297-1.8671-.9297-3.3359 0-1.4844.3151-2.6068.9453-3.3672.6355-.7604 1.4714-1.1406 2.5078-1.1406.4376 0 .8204.0599 1.1485.1797.3281.1146.6094.2708.8437.4687.2396.198.4427.4193.6094.6641h.086c-.0261-.1615-.0573-.3932-.0938-.6953-.0312-.3073-.0469-.5912-.0469-.8516v-3.1093h1.8438v12.1562h-1.4375l-.3282-1.1797h-.0781c-.1562.25-.3541.4766-.5937.6797-.2344.1979-.5156.3568-.8438.4766-.3229.1198-.7057.1796-1.1484.1796zm.5156-1.4921c.7865 0 1.3412-.2266 1.6641-.6797.3229-.4532.4896-1.1328.5-2.0391v-.2422c0-.9687-.1563-1.7109-.4688-2.2265-.3125-.5209-.8828-.7813-1.7109-.7813-.6615 0-1.1667.2682-1.5156.8047-.3438.5312-.5157 1.2734-.5157 2.2266 0 .9531.1719 1.6823.5157 2.1875.3489.5.8593.75 1.5312.75zm9.7031 1.4921c-1.0312 0-1.8593-.375-2.4843-1.125-.6198-.7552-.9297-1.8671-.9297-3.3359 0-1.4844.3151-2.6068.9453-3.3672.6354-.7604 1.4713-1.1406 2.5078-1.1406.4375 0 .8203.0599 1.1484.1797.3282.1146.6094.2708.8438.4687.2396.198.4427.4193.6094.6641h.0859c-.026-.1615-.0573-.3932-.0937-.6953-.0313-.3073-.0469-.5912-.0469-.8516v-3.1093h1.8437v12.1562h-1.4375l-.3281-1.1797h-.0781c-.1563.25-.3542.4766-.5938.6797-.2343.1979-.5156.3568-.8437.4766-.3229.1198-.7058.1796-1.1485.1796zm.5157-1.4921c.7864 0 1.3411-.2266 1.664-.6797.3229-.4532.4896-1.1328.5-2.0391v-.2422c0-.9687-.1562-1.7109-.4687-2.2265-.3125-.5209-.8828-.7813-1.711-.7813-.6614 0-1.1666.2682-1.5156.8047-.3437.5312-.5156 1.2734-.5156 2.2266 0 .9531.1719 1.6823.5156 2.1875.349.5.8594.75 1.5313.75zm15.7109-7.4766c.974 0 1.7318.2526 2.2734.7578.5469.5.8203 1.3047.8203 2.4141v5.6406h-1.8359v-5.2969c0-.6719-.138-1.1745-.4141-1.5078-.276-.3385-.7031-.5078-1.2812-.5078-.8385 0-1.4219.2578-1.75.7734-.3229.5157-.4844 1.2631-.4844 2.2422v4.2969h-1.8359v-8.6484h1.4297l.2578 1.1718h.1016c.1874-.302.4192-.5494.6953-.7422.2812-.1979.5937-.3463.9375-.4453.3489-.0989.7109-.1484 1.0859-.1484zm9.3594 0c.7708 0 1.4323.1589 1.9843.4766.5521.3177.9766.7682 1.2735 1.3515.2969.5834.4453 1.2813.4453 2.0938v.9844h-5.7734c.0208.8385.2448 1.4843.6718 1.9374.4323.4532 1.0365.6797 1.8125.6797.5521 0 1.0469-.052 1.4844-.1562.4427-.1094.8985-.2682 1.3672-.4766v1.4922c-.4323.2031-.8724.3516-1.3203.4453-.4479.0938-.9844.1406-1.6094.1406-.8489 0-1.5963-.164-2.2422-.4921-.6406-.3334-1.1432-.8282-1.5078-1.4844-.3594-.6563-.539-1.4714-.539-2.4453 0-.9688.164-1.7917.4921-2.4688.3282-.6771.7891-1.1927 1.3829-1.5468.5937-.3542 1.2864-.5313 2.0781-.5313zm0 1.3828c-.5781 0-1.0469.1875-1.4063.5625-.3541.375-.5625.9245-.625 1.6484h3.9375c-.0052-.4322-.0781-.8151-.2187-1.1484-.1354-.3333-.3438-.5937-.625-.7812-.2761-.1875-.6302-.2813-1.0625-.2813zm13.0937 7.4219-1.0937-4.0234c-.0521-.198-.1146-.4376-.1875-.7188s-.1459-.5703-.2188-.8672c-.0729-.3021-.1406-.5807-.2031-.8359-.0573-.2552-.1016-.4531-.1328-.5938h-.0625c-.0261.1407-.0677.3386-.125.5938s-.1224.5338-.1953.8359-.1459.5964-.2188.8828c-.0677.2865-.1302.5313-.1875.7344l-1.1484 3.9922h-2.0156l-2.4219-8.6484h1.8594l1.125 4.2968c.0729.2917.1432.6068.2109.9453.0729.3386.1354.6615.1875.9688s.0911.5599.1172.7578h.0625c.0208-.1406.0495-.3177.0859-.5313.0365-.2187.0781-.4453.125-.6796.0469-.2396.0938-.4636.1407-.6719.0468-.2136.0911-.3854.1328-.5156l1.3281-4.5703h2.0078l1.2734 4.5703c.0573.1979.1198.4479.1875.75.0677.2968.1276.5963.1797.8984.0573.2969.0938.5443.1094.7422h.0625c.0208-.1771.0573-.4167.1094-.7188.0573-.3073.1224-.6328.1953-.9765.0729-.349.1484-.6719.2265-.9688l1.1485-4.2968h1.8281l-2.4375 8.6484z" fill="#fff"/></g></svg>

<svg width="101" height="48" viewBox="0 0 101 48" fill="none" xmlns="http://www.w3.org/2000/svg">
<rect width="101" height="48" rx="4" fill="#0063A3"/>
<g clip-path="url(#clip0_480_99450)">
<path d="M24.7734 30L23.6562 26.8281H19.2891L18.1719 30H16.1953L20.4453 18.5312H22.5234L26.7656 30H24.7734ZM23.1719 25.2188L22.0859 22.0938C22.0443 21.9583 21.9844 21.7682 21.9062 21.5234C21.8281 21.2734 21.75 21.0208 21.6719 20.7656C21.5938 20.5052 21.5286 20.2865 21.4766 20.1094C21.4245 20.3229 21.3594 20.5625 21.2812 20.8281C21.2083 21.0885 21.1354 21.3333 21.0625 21.5625C20.9948 21.7917 20.9427 21.9688 20.9062 22.0938L19.8125 25.2188H23.1719ZM31.2422 30.1562C30.2109 30.1562 29.3828 29.7812 28.7578 29.0312C28.138 28.276 27.8281 27.1641 27.8281 25.6953C27.8281 24.2109 28.1432 23.0885 28.7734 22.3281C29.4089 21.5677 30.2448 21.1875 31.2812 21.1875C31.7188 21.1875 32.1016 21.2474 32.4297 21.3672C32.7578 21.4818 33.0391 21.638 33.2734 21.8359C33.513 22.0339 33.7161 22.2552 33.8828 22.5H33.9688C33.9427 22.3385 33.9115 22.1068 33.875 21.8047C33.8438 21.4974 33.8281 21.2135 33.8281 20.9531V17.8438H35.6719V30H34.2344L33.9062 28.8203H33.8281C33.6719 29.0703 33.474 29.2969 33.2344 29.5C33 29.6979 32.7188 29.8568 32.3906 29.9766C32.0677 30.0964 31.6849 30.1562 31.2422 30.1562ZM31.7578 28.6641C32.5443 28.6641 33.099 28.4375 33.4219 27.9844C33.7448 27.5312 33.9115 26.8516 33.9219 25.9453V25.7031C33.9219 24.7344 33.7656 23.9922 33.4531 23.4766C33.1406 22.9557 32.5703 22.6953 31.7422 22.6953C31.0807 22.6953 30.5755 22.9635 30.2266 23.5C29.8828 24.0312 29.7109 24.7734 29.7109 25.7266C29.7109 26.6797 29.8828 27.4089 30.2266 27.9141C30.5755 28.4141 31.0859 28.6641 31.7578 28.6641ZM41.4609 30.1562C40.4297 30.1562 39.6016 29.7812 38.9766 29.0312C38.3568 28.276 38.0469 27.1641 38.0469 25.6953C38.0469 24.2109 38.362 23.0885 38.9922 22.3281C39.6276 21.5677 40.4635 21.1875 41.5 21.1875C41.9375 21.1875 42.3203 21.2474 42.6484 21.3672C42.9766 21.4818 43.2578 21.638 43.4922 21.8359C43.7318 22.0339 43.9349 22.2552 44.1016 22.5H44.1875C44.1615 22.3385 44.1302 22.1068 44.0938 21.8047C44.0625 21.4974 44.0469 21.2135 44.0469 20.9531V17.8438H45.8906V30H44.4531L44.125 28.8203H44.0469C43.8906 29.0703 43.6927 29.2969 43.4531 29.5C43.2188 29.6979 42.9375 29.8568 42.6094 29.9766C42.2865 30.0964 41.9036 30.1562 41.4609 30.1562ZM41.9766 28.6641C42.763 28.6641 43.3177 28.4375 43.6406 27.9844C43.9635 27.5312 44.1302 26.8516 44.1406 25.9453V25.7031C44.1406 24.7344 43.9844 23.9922 43.6719 23.4766C43.3594 22.9557 42.7891 22.6953 41.9609 22.6953C41.2995 22.6953 40.7943 22.9635 40.4453 23.5C40.1016 24.0312 39.9297 24.7734 39.9297 25.7266C39.9297 26.6797 40.1016 27.4089 40.4453 27.9141C40.7943 28.4141 41.3047 28.6641 41.9766 28.6641ZM57.6875 21.1875C58.6615 21.1875 59.4193 21.4401 59.9609 21.9453C60.5078 22.4453 60.7812 23.25 60.7812 24.3594V30H58.9453V24.7031C58.9453 24.0312 58.8073 23.5286 58.5312 23.1953C58.2552 22.8568 57.8281 22.6875 57.25 22.6875C56.4115 22.6875 55.8281 22.9453 55.5 23.4609C55.1771 23.9766 55.0156 24.724 55.0156 25.7031V30H53.1797V21.3516H54.6094L54.8672 22.5234H54.9688C55.1562 22.2214 55.388 21.974 55.6641 21.7812C55.9453 21.5833 56.2578 21.4349 56.6016 21.3359C56.9505 21.237 57.3125 21.1875 57.6875 21.1875ZM67.0469 21.1875C67.8177 21.1875 68.4792 21.3464 69.0312 21.6641C69.5833 21.9818 70.0078 22.4323 70.3047 23.0156C70.6016 23.599 70.75 24.2969 70.75 25.1094V26.0938H64.9766C64.9974 26.9323 65.2214 27.5781 65.6484 28.0312C66.0807 28.4844 66.6849 28.7109 67.4609 28.7109C68.013 28.7109 68.5078 28.6589 68.9453 28.5547C69.388 28.4453 69.8438 28.2865 70.3125 28.0781V29.5703C69.8802 29.7734 69.4401 29.9219 68.9922 30.0156C68.5443 30.1094 68.0078 30.1562 67.3828 30.1562C66.5339 30.1562 65.7865 29.9922 65.1406 29.6641C64.5 29.3307 63.9974 28.8359 63.6328 28.1797C63.2734 27.5234 63.0938 26.7083 63.0938 25.7344C63.0938 24.7656 63.2578 23.9427 63.5859 23.2656C63.9141 22.5885 64.375 22.0729 64.9688 21.7188C65.5625 21.3646 66.2552 21.1875 67.0469 21.1875ZM67.0469 22.5703C66.4688 22.5703 66 22.7578 65.6406 23.1328C65.2865 23.5078 65.0781 24.0573 65.0156 24.7812H68.9531C68.9479 24.349 68.875 23.9661 68.7344 23.6328C68.599 23.2995 68.3906 23.0391 68.1094 22.8516C67.8333 22.6641 67.4792 22.5703 67.0469 22.5703ZM80.1406 29.9922L79.0469 25.9688C78.9948 25.7708 78.9323 25.5312 78.8594 25.25C78.7865 24.9688 78.7135 24.6797 78.6406 24.3828C78.5677 24.0807 78.5 23.8021 78.4375 23.5469C78.3802 23.2917 78.3359 23.0938 78.3047 22.9531H78.2422C78.2161 23.0938 78.1745 23.2917 78.1172 23.5469C78.0599 23.8021 77.9948 24.0807 77.9219 24.3828C77.849 24.6849 77.776 24.9792 77.7031 25.2656C77.6354 25.5521 77.5729 25.7969 77.5156 26L76.3672 29.9922H74.3516L71.9297 21.3438H73.7891L74.9141 25.6406C74.987 25.9323 75.0573 26.2474 75.125 26.5859C75.1979 26.9245 75.2604 27.2474 75.3125 27.5547C75.3646 27.862 75.4036 28.1146 75.4297 28.3125H75.4922C75.513 28.1719 75.5417 27.9948 75.5781 27.7812C75.6146 27.5625 75.6562 27.3359 75.7031 27.1016C75.75 26.862 75.7969 26.638 75.8438 26.4297C75.8906 26.2161 75.9349 26.0443 75.9766 25.9141L77.3047 21.3438H79.3125L80.5859 25.9141C80.6432 26.112 80.7057 26.362 80.7734 26.6641C80.8411 26.9609 80.901 27.2604 80.9531 27.5625C81.0104 27.8594 81.0469 28.1068 81.0625 28.3047H81.125C81.1458 28.1276 81.1823 27.888 81.2344 27.5859C81.2917 27.2786 81.3568 26.9531 81.4297 26.6094C81.5026 26.2604 81.5781 25.9375 81.6562 25.6406L82.8047 21.3438H84.6328L82.1953 29.9922H80.1406Z" fill="white"/>
</g>
<defs>
<clipPath id="clip0_480_99450">
<rect width="69" height="24" fill="white" transform="translate(16 12)"/>
</clipPath>
</defs>
</svg>
